packages/icons/src/lib/svgs/cart.svg

<svg
        aria-hidden="true"
        data-testid="test-icon"
        fill="none"
        
        viewBox="0 0 24 24"
        
        xmlns="http://www.w3.org/2000/svg"
        
    >
        <title>cart icon</title>
        <path
            fillRule="evenodd"
            clipRule="evenodd"
            d="M0 2.875C0 2.39175 0.391751 2 0.875 2H4.375C4.79205 2 5.15113 2.29434 5.23298 2.70327L5.96788 6.375H20.125C20.3858 6.375 20.6329 6.49131 20.7992 6.69223C20.9654 6.89316 21.0334 7.15775 20.9845 7.41391L19.5833 14.7617C19.4632 15.366 19.1345 15.9088 18.6546 16.2951C18.1771 16.6795 17.5802 16.8846 16.9674 16.875H8.47756C7.86483 16.8846 7.26793 16.6795 6.79042 16.2951C6.31071 15.9089 5.98205 15.3664 5.86191 14.7625C5.86186 14.7622 5.86196 14.7627 5.86191 14.7625L4.40019 7.4593C4.39426 7.43514 4.38933 7.41059 4.38546 7.38569L3.65778 3.75H0.875C0.391751 3.75 0 3.35825 0 2.875ZM6.31814 8.125L7.57823 14.4208C7.61824 14.6222 7.72782 14.8031 7.88778 14.9319C8.04775 15.0607 8.24791 15.1291 8.45323 15.1252L8.47 15.125H16.975L16.9918 15.1252C17.1971 15.1291 17.3972 15.0607 17.5572 14.9319C17.7164 14.8037 17.8257 14.6239 17.8662 14.4236L19.0674 8.125H6.31814ZM6.125 20.375C6.125 19.4085 6.9085 18.625 7.875 18.625C8.8415 18.625 9.625 19.4085 9.625 20.375C9.625 21.3415 8.8415 22.125 7.875 22.125C6.9085 22.125 6.125 21.3415 6.125 20.375ZM15.75 20.375C15.75 19.4085 16.5335 18.625 17.5 18.625C18.4665 18.625 19.25 19.4085 19.25 20.375C19.25 21.3415 18.4665 22.125 17.5 22.125C16.5335 22.125 15.75 21.3415 15.75 20.375Z"
            fill="currentColor"
        />
    </svg>

<svg aria-hidden="true" data-testid="test-icon" fill="currentColor" viewBox="0 0 24 24" xmlns="http://www.w3.org/2000/svg"><path d="M0 2.875C0 2.392.392 2 .875 2h3.5c.417 0 .776.294.858.703l.735 3.672h14.157a.875.875 0 01.86 1.039l-1.402 7.348a2.625 2.625 0 01-2.616 2.113h-8.49a2.625 2.625 0 01-2.615-2.113L4.4 7.46a.868.868 0 01-.015-.073L3.658 3.75H.875A.875.875 0 010 2.875zm6.318 5.25l1.26 6.296a.875.875 0 00.875.704h8.539a.875.875 0 00.874-.701l1.201-6.299H6.318zm-.193 12.25a1.75 1.75 0 113.5 0 1.75 1.75 0 01-3.5 0zm9.625 0a1.75 1.75 0 113.5 0 1.75 1.75 0 01-3.5 0z"/></svg>
